apps/app.mento.org/public/tokens/cAUD.svg

<svg width="40" height="40" viewBox="0 0 40 40" fill="none" xmlns="http://www.w3.org/2000/svg">
<g clip-path="url(#clip0_4059_20170)">
<path d="M20 40C31.0457 40 40 31.0457 40 20C40 8.95431 31.0457 0 20 0C8.95431 0 0 8.95431 0 20C0 31.0457 8.95431 40 20 40Z" fill="#008799"/>
<path d="M16.1542 29.7089C11.695 29.7089 8.05022 26.0649 8.05022 21.6049C8.05022 18.4401 9.87262 15.6585 12.5574 14.3641V11.4393C8.38542 12.9257 5.36462 16.9057 5.36462 21.6049C5.36462 27.5513 10.2078 32.3945 16.1542 32.3945C20.8534 32.3945 24.8334 29.3737 26.3198 25.2017H23.395C22.1006 27.8873 19.319 29.7089 16.1542 29.7089Z" fill="#FCFBFF"/>
<path d="M30.6718 19.1334V15.8512C31.7924 16.1316 32.6732 16.4916 32.6732 17.4525C32.6732 18.3334 31.9126 18.9738 30.6718 19.1334ZM29.1512 22.1752H30.7526V20.9344C33.1139 20.654 34.6352 19.293 34.6352 17.4519C34.6352 14.8902 32.5937 14.3299 30.6725 13.9693V10.5669C31.5934 10.647 32.5937 10.9268 33.5146 11.3676V9.36618C32.6338 9.04563 31.6735 8.84596 30.7526 8.8059V7.60519H29.1512V8.8059C26.7098 9.08637 25.3087 10.4473 25.3087 12.1683C25.3087 14.77 27.3101 15.3704 29.2314 15.731V19.1334C28.0707 18.9731 26.83 18.493 25.3889 17.7324V19.8539C26.6296 20.4543 27.9105 20.855 29.1512 20.9344V22.1752ZM29.2314 13.8097C28.1108 13.5693 27.27 13.1693 27.27 12.1683C27.27 11.2474 27.9906 10.6871 29.2314 10.5669V13.809V13.8097Z" fill="#FCFBFF"/>
<path d="M15.5266 20.8263H13.625L17.8978 8.95285H19.9676L24.2404 20.8263H22.3388L18.982 11.1096H18.8892L15.5266 20.8263ZM15.8455 16.1766H22.0141V17.684H15.8455V16.1766Z" fill="#FCFBFF"/>
</g>
<defs>
<clipPath id="clip0_4059_20170">
<rect width="40" height="40" fill="white"/>
</clipPath>
</defs>
</svg>

<svg xmlns="http://www.w3.org/2000/svg" width="40" height="40" fill="none" viewBox="0 0 40 40"><g clip-path="url(#a)"><path fill="#008799" d="M20 40c11.046 0 20-8.954 20-20S31.046 0 20 0 0 8.954 0 20s8.954 20 20 20"/><path fill="#FCFBFF" d="M16.154 29.709c-4.459 0-8.104-3.644-8.104-8.104 0-3.165 1.823-5.946 4.507-7.24v-2.926c-4.172 1.487-7.192 5.467-7.192 10.166 0 5.946 4.843 10.79 10.79 10.79 4.698 0 8.678-3.021 10.165-7.193h-2.925c-1.294 2.685-4.076 4.507-7.24 4.507m14.517-10.576v-3.282c1.12.28 2.001.64 2.001 1.601 0 .881-.76 1.522-2.001 1.681m-1.52 3.042h1.6v-1.24c2.362-.281 3.883-1.642 3.883-3.483 0-2.562-2.041-3.122-3.962-3.483v-3.402c.92.08 1.92.36 2.842.8v-2a9.4 9.4 0 0 0-2.762-.561v-1.2H29.15v1.2c-2.441.28-3.842 1.641-3.842 3.362 0 2.602 2.001 3.202 3.922 3.563v3.402c-1.16-.16-2.401-.64-3.842-1.4v2.12c1.24.601 2.521 1.002 3.762 1.081zm.08-8.365c-1.121-.24-1.962-.64-1.962-1.642 0-.92.72-1.48 1.961-1.601v3.242"/><path fill="#FCFBFF" d="M15.527 20.826h-1.902l4.273-11.873h2.07l4.272 11.873h-1.9l-3.357-9.716h-.093zm.319-4.65h6.168v1.508h-6.168z"/></g><defs><clipPath id="a"><path fill="#fff" d="M0 0h40v40H0z"/></clipPath></defs></svg>
